X:91
T:Corporation March. JGi.091
O:Tealby,Lincolnshire
M:C
L:1/8
Q:1/4=120
S:Joshua Gibbons MS,1823,Tealby,Lincs.
R:march
Z:VMP/R.Greig, 2009
K:D
ABc|d2d>dd2fe|d2DDD2FG|A2fa gfed|c2c>cc2Ac|
e2e>ee2ce|g2g>g gbag|g>fed fedc|d2d>dd2:|
|:fg|a2aa abab|g2g>gg2 bag|gfed fage|e2e>ee2 fe|
d2d>dd2af|e2e>ee2bg|gfed fedc|d2d>dd2:|

